src/scss/images/arrow-prev.svg

<svg fill="none" height="70" viewBox="0 0 70 70" width="70" xmlns="http://www.w3.org/2000/svg" xmlns:xlink="http://www.w3.org/1999/xlink"><linearGradient id="a" gradientUnits="userSpaceOnUse" x1="35" x2="35" y1="0" y2="70"><stop offset="0" stop-color="#826ab4"/><stop offset="1" stop-color="#614897"/></linearGradient><circle cx="35" cy="35" fill="url(#a)" r="33" stroke="#fff" stroke-width="4" transform="matrix(-1 0 0 1 70 0)"/><path d="m35.0655 16.625v8.75c3.062 0 10.1307 0 14.0001 3.0625 9.6234 7.6167 3.2714 18.0545 1.3115 19.6875-3.063 2.5521-12.2491 6.5625-8.7491 3.5s3.9375-9.1875 2.1875-11.8125c-1.4-2.1-6.4167-2.0417-8.75-1.75v10.0625l-19.25-16.1875z" fill="#fff"/></svg>

<svg width="70" height="70" viewBox="0 0 70 70" fill="none" xmlns="http://www.w3.org/2000/svg">
<g id="Btns">
<circle id="Ellipse 2" cx="35" cy="35" r="33" transform="matrix(-1 0 0 1 70 0)" fill="url(#paint0_linear_115_4602)" stroke="white" stroke-width="4"/>
<path id="Vector 1" d="M35.0655 16.625V25.375C38.1275 25.375 45.1962 25.375 49.0656 28.4375C58.689 36.0542 52.337 46.492 50.3771 48.125C47.3141 50.6771 38.128 54.6875 41.628 51.625C45.128 48.5625 45.5655 42.4375 43.8155 39.8125C42.4155 37.7125 37.3988 37.7708 35.0655 38.0625V48.125L15.8155 31.9375L35.0655 16.625Z" fill="white"/>
</g>
<defs>
<linearGradient id="paint0_linear_115_4602" x1="35" y1="0" x2="35" y2="70" gradientUnits="userSpaceOnUse">
<stop stop-color="#826AB4"/>
<stop offset="1" stop-color="#614897"/>
</linearGradient>
</defs>
</svg>
